design/perfin-logo.svg

<?xml version="1.0" encoding="UTF-8" standalone="no"?>
<!-- Created with Inkscape (http://www.inkscape.org/) -->

<svg
   width="64"
   height="64"
   viewBox="0 0 16.933333 16.933333"
   version="1.1"
   id="svg1"
   inkscape:version="1.3.2 (1:1.3.2+202311252150+091e20ef0f)"
   sodipodi:docname="perfin-logo.svg"
   inkscape:export-filename="perfin-logo_256.png"
   inkscape:export-xdpi="384"
   inkscape:export-ydpi="384"
   xmlns:inkscape="http://www.inkscape.org/namespaces/inkscape"
   xmlns:sodipodi="http://sodipodi.sourceforge.net/DTD/sodipodi-0.dtd"
   xmlns="http://www.w3.org/2000/svg"
   xmlns:svg="http://www.w3.org/2000/svg">
  <sodipodi:namedview
     id="namedview1"
     pagecolor="#505050"
     bordercolor="#ffffff"
     borderopacity="1"
     inkscape:showpageshadow="0"
     inkscape:pageopacity="0"
     inkscape:pagecheckerboard="1"
     inkscape:deskcolor="#505050"
     inkscape:document-units="px"
     inkscape:zoom="11.313709"
     inkscape:cx="32.438524"
     inkscape:cy="30.228815"
     inkscape:window-width="1920"
     inkscape:window-height="1025"
     inkscape:window-x="1080"
     inkscape:window-y="470"
     inkscape:window-maximized="1"
     inkscape:current-layer="layer1" />
  <defs
     id="defs1">
    <rect
       x="23.509132"
       y="17.511823"
       width="25.696689"
       height="28.301114"
       id="rect2" />
    <rect
       x="23.509132"
       y="17.511823"
       width="25.696689"
       height="28.301114"
       id="rect3" />
  </defs>
  <g
     inkscape:label="Layer 1"
     inkscape:groupmode="layer"
     id="layer1">
    <g
       id="logo-group">
      <path
         id="top-right-background"
         style="fill:#346b23;fill-opacity:1;stroke:none;stroke-width:0.79375;stroke-linecap:round"
         d="M 4.2333332 0 C 1.8880691 0 2.6202161e-17 1.8880691 0 4.2333332 L 0 12.7 C -1.2533172e-15 15.045264 1.8880691 16.933333 4.2333332 16.933333 L 12.7 16.933333 C 15.045264 16.933333 16.933333 15.045264 16.933333 12.7 L 16.933333 4.2333332 C 16.933333 1.8880691 15.045264 2.6202161e-17 12.7 0 L 4.2333332 0 z " />
      <path
         id="bottom-right-background"
         style="fill:#ca9c00;fill-opacity:1;stroke:none;stroke-width:0.79375;stroke-linecap:round"
         d="M 15.696199 1.2371338 L 1.2371338 15.696199 C 2.002308 16.461373 3.0607012 16.933333 4.2333332 16.933333 L 12.7 16.933333 C 15.045264 16.933333 16.933333 15.045264 16.933333 12.7 L 16.933333 4.2333332 C 16.933333 3.0607012 16.461373 2.002308 15.696199 1.2371338 z " />
      <path
         id="lower-dollar"
         style="display:inline;fill:#346b23;fill-opacity:1;stroke:none;stroke-width:0.79375;stroke-linecap:round"
         d="M 9.537919,7.3954134 7.984009,8.9493237 V 13.384195 C 7.108943,13.339155 6.414126,13.117013 5.899382,12.718086 5.591151,12.475354 5.346639,12.158421 5.162993,11.77034 l -1.204061,1.204061 c 0.792283,1.097222 2.132722,1.678716 4.025077,1.741495 v 1.553911 h 1.235584 v -1.553911 c 1.441285,-0.05791 2.548094,-0.389429 3.320211,-0.994254 0.772117,-0.611259 1.158069,-1.437594 1.158069,-2.479952 0,-0.514745 -0.07422,-0.96528 -0.222209,-1.3513385 C 13.327675,9.4978588 13.10605,9.1533177 12.810072,8.8573396 12.514093,8.5613615 12.117989,8.2978085 11.622547,8.0661735 11.178148,7.8584026 10.474116,7.6342452 9.537919,7.3954134 Z M 9.219593,8.8573396 c 0.8815,0.2252008 1.482826,0.4314552 1.804541,0.6180501 0.321715,0.1801606 0.569381,0.4085543 0.743107,0.6852293 0.180161,0.276675 0.270268,0.627468 0.270268,1.052132 0,0.649865 -0.23803,1.164468 -0.714168,1.544092 -0.476139,0.37319 -1.177208,0.588563 -2.103748,0.646472 z"
         sodipodi:nodetypes="cccccccccccccscssccccsccc" />
      <path
         id="upper-dollar"
         style="font-size:8px;line-height:8.64px;font-family:'Liberation Mono';-inkscape-font-specification:'Liberation Mono';letter-spacing:0px;word-spacing:0px;white-space:pre;shape-inside:url(#rect3);display:inline;fill:#ca9c00;fill-opacity:1;stroke:none;stroke-width:3;stroke-linecap:round"
         d="m 25.689419,18.184344 v 0.507817 c -0.54427,0.01823 -0.959661,0.136597 -1.246119,0.355347 -0.283854,0.216146 -0.425622,0.518229 -0.425622,0.90625 0,0.244791 0.0468,0.455806 0.14055,0.632889 0.09635,0.177084 0.24613,0.32939 0.449255,0.456994 0.205729,0.125 0.527312,0.240838 0.964812,0.347609 l 0.117124,0.03137 v 0.115242 l 0.628916,-0.628916 c -0.04352,-0.0111 -0.08269,-0.02199 -0.128837,-0.03325 v -1.664003 c 0.283854,0.01823 0.509099,0.0976 0.675766,0.238223 0.158491,0.133727 0.2669,0.329437 0.326484,0.585622 l 0.527896,-0.527896 c -0.107669,-0.217411 -0.243902,-0.385244 -0.409099,-0.503008 -0.26302,-0.190104 -0.636672,-0.294241 -1.121047,-0.312471 v -0.507817 z m 0,1.0194 v 1.613387 c -0.309896,-0.08073 -0.523441,-0.153667 -0.640628,-0.218771 -0.117188,-0.06771 -0.207095,-0.150977 -0.269595,-0.249935 -0.0599,-0.101562 -0.08973,-0.22657 -0.08973,-0.375007 0,-0.236979 0.08464,-0.420695 0.253909,-0.550903 0.16927,-0.132812 0.417915,-0.20575 0.74604,-0.218771 z"
         transform="matrix(2.4707763,0,0,2.4707763,-55.488799,-44.26592)"
         sodipodi:nodetypes="cccscccccccccccccccccccscsc" />
    </g>
  </g>
</svg>

<?xml version="1.0" encoding="UTF-8" standalone="no"?>
<!-- Created with Inkscape (http://www.inkscape.org/) -->

<svg
   width="64"
   height="64"
   viewBox="0 0 16.933333 16.933333"
   version="1.1"
   id="svg1"
   inkscape:version="1.3.2 (1:1.3.2+202311252150+091e20ef0f)"
   sodipodi:docname="perfin-logo.svg"
   inkscape:export-filename="perfin-logo_256.png"
   inkscape:export-xdpi="384"
   inkscape:export-ydpi="384"
   xmlns:inkscape="http://www.inkscape.org/namespaces/inkscape"
   xmlns:sodipodi="http://sodipodi.sourceforge.net/DTD/sodipodi-0.dtd"
   xmlns="http://www.w3.org/2000/svg"
   xmlns:svg="http://www.w3.org/2000/svg">
  <sodipodi:namedview
     id="namedview1"
     pagecolor="#505050"
     bordercolor="#ffffff"
     borderopacity="1"
     inkscape:showpageshadow="0"
     inkscape:pageopacity="0"
     inkscape:pagecheckerboard="1"
     inkscape:deskcolor="#505050"
     inkscape:document-units="px"
     inkscape:zoom="8"
     inkscape:cx="25.125"
     inkscape:cy="33.375"
     inkscape:window-width="1920"
     inkscape:window-height="1025"
     inkscape:window-x="1080"
     inkscape:window-y="470"
     inkscape:window-maximized="1"
     inkscape:current-layer="layer1" />
  <defs
     id="defs1">
    <rect
       x="23.509132"
       y="17.511823"
       width="25.696689"
       height="28.301114"
       id="rect2" />
    <rect
       x="23.509132"
       y="17.511823"
       width="25.696689"
       height="28.301114"
       id="rect3" />
  </defs>
  <g
     inkscape:label="Layer 1"
     inkscape:groupmode="layer"
     id="layer1">
    <g
       id="logo-group">
      <path
         id="top-right-background"
         style="fill:#346b23;fill-opacity:1;stroke:none;stroke-width:0.79375;stroke-linecap:round"
         d="M 4.2333332 0 C 1.8880691 0 2.6202161e-17 1.8880691 0 4.2333332 L 0 12.7 C -1.2533172e-15 15.045264 1.8880691 16.933333 4.2333332 16.933333 L 12.7 16.933333 C 15.045264 16.933333 16.933333 15.045264 16.933333 12.7 L 16.933333 4.2333332 C 16.933333 1.8880691 15.045264 2.6202161e-17 12.7 0 L 4.2333332 0 z " />
      <path
         id="bottom-right-background"
         style="fill:#ca9c00;fill-opacity:1;stroke:none;stroke-width:0.79375;stroke-linecap:round"
         d="M 15.696199 1.2371338 L 1.2371338 15.696199 C 2.002308 16.461373 3.0607012 16.933333 4.2333332 16.933333 L 12.7 16.933333 C 15.045264 16.933333 16.933333 15.045264 16.933333 12.7 L 16.933333 4.2333332 C 16.933333 3.0607012 16.461373 2.002308 15.696199 1.2371338 z " />
      <path
         id="lower-dollar"
         style="fill:#346b23;fill-opacity:1;stroke:none;stroke-width:0.79375;stroke-linecap:round"
         d="m 13.000241,3.9330926 -1.304313,1.304313 c 0.0076,0.032651 0.01631,0.063696 0.02325,0.097152 L 13.398662,5.0162308 C 13.290974,4.6118006 13.157768,4.2511887 13.000237,3.9330929 Z M 9.537919,7.3954134 7.984009,8.9493237 V 13.384195 C 7.108943,13.339155 6.414126,13.117013 5.899382,12.718086 5.591151,12.475354 5.346639,12.158421 5.162993,11.77034 l -1.204061,1.204061 c 0.792283,1.097222 2.132722,1.678716 4.025077,1.741495 v 1.553911 h 1.235584 v -1.553911 c 1.441285,-0.05791 2.548094,-0.389429 3.320211,-0.994254 0.772117,-0.611259 1.158069,-1.437594 1.158069,-2.479952 0,-0.514745 -0.07422,-0.96528 -0.222209,-1.3513385 C 13.327675,9.4978588 13.10605,9.1533177 12.810072,8.8573396 12.514093,8.5613615 12.117989,8.2978085 11.622547,8.0661735 11.178148,7.8584026 10.474116,7.6342452 9.537919,7.3954134 Z M 9.219593,8.8573396 c 0.8815,0.2252008 1.482826,0.4314552 1.804541,0.6180501 0.321715,0.1801606 0.569381,0.4085543 0.743107,0.6852293 0.180161,0.276675 0.270268,0.627468 0.270268,1.052132 0,0.649865 -0.23803,1.164468 -0.714168,1.544092 -0.476139,0.37319 -1.177208,0.588563 -2.103748,0.646472 z" />
      <path
         id="upper-dollar"
         style="font-size:8px;line-height:8.64px;font-family:'Liberation Mono';-inkscape-font-specification:'Liberation Mono';letter-spacing:0px;word-spacing:0px;white-space:pre;shape-inside:url(#rect3);fill:#ca9c00;fill-opacity:1;stroke:none;stroke-width:3;stroke-linecap:round"
         d="M 25.689419 18.184344 L 25.689419 18.692161 C 25.145149 18.710391 24.729758 18.828758 24.4433 19.047508 C 24.159446 19.263654 24.017678 19.565737 24.017678 19.953758 C 24.017678 20.198549 24.064478 20.409564 24.158228 20.586647 C 24.254582 20.763731 24.404358 20.916037 24.607483 21.043641 C 24.813212 21.168641 25.134795 21.284479 25.572295 21.39125 L 25.689419 21.422622 L 25.689419 21.537864 L 26.318335 20.908948 C 26.274814 20.897846 26.235644 20.886962 26.189498 20.875694 L 26.189498 19.211691 C 26.473352 19.229921 26.698597 19.309289 26.865264 19.449914 C 27.023755 19.583641 27.132164 19.779351 27.191748 20.035536 L 27.719644 19.50764 C 27.611975 19.290229 27.475742 19.122396 27.310545 19.004632 C 27.047525 18.814528 26.673873 18.710391 26.189498 18.692161 L 26.189498 18.184344 L 25.689419 18.184344 z M 25.689419 19.203744 L 25.689419 20.817131 C 25.379523 20.736402 25.165978 20.663464 25.048791 20.59836 C 24.931603 20.530652 24.841696 20.447383 24.779196 20.348425 C 24.7193 20.246863 24.68947 20.121855 24.68947 19.973418 C 24.68947 19.736439 24.774108 19.552723 24.943379 19.422515 C 25.112649 19.289703 25.361294 19.216765 25.689419 19.203744 z M 24.431587 22.324898 L 23.767534 22.469421 C 23.822782 22.741711 23.9209 22.973823 24.060345 23.166938 L 24.547666 22.679617 C 24.497867 22.574382 24.458752 22.45654 24.431587 22.324898 z "
         transform="matrix(2.4707763,0,0,2.4707763,-55.488799,-44.26592)" />
    </g>
  </g>
</svg>
